!!!COM: Palestrina, Giovanni Perluigi da
!!!OPR: Missa In duplicibus minoribus (II)
!!!OMD: Gloria
!!!OTL: First Section
**kern	**kern	**kern	**kern	**kern
*Ibass	*Itenor	*Itenor	*Icalto	*Icant
!Bassus	!Tenor 2	!Tenor 1	!Altus	!Cantus
*clefF4	*clefGv2	*clefGv2	*clefG2	*clefG2
*k[]	*k[]	*k[]	*k[]	*k[]
*E:phr	*E:phr	*E:phr	*E:phr	*E:phr
*M4/2	*M4/2	*M4/2	*M4/2	*M4/2
=1	=1	=1	=1	=1
1E	1B	1G#	1r	0r
1AA	1c	1A	1e	.
=2	=2	=2	=2	=2
2.D	1A	2F	1f	0r
.	.	1F	.	.
4C	.	.	.	.
4D	2.A	.	1d	.
4E	.	.	.	.
[2F	.	2D	.	.
.	4G	.	.	.
=3	=3	=3	=3	=3
2F]	4A	2F	1c	0r
.	4B	.	.	.
2E	1c	2G	.	.
1D	.	2A	1d	.
.	2B	2B	.	.
=4	=4	=4	=4	=4
2.C	4A	4c	1e	1r
.	4G	4B	.	.
.	2c	2.A	.	.
4D	.	.	.	.
1E	1B	.	1e	1b
.	.	8G#	.	.
.	.	8F#	.	.
.	.	2G#	.	.
=5	=5	=5	=5	=5
1.AA	2r	4A	[0e	1cc
.	.	4G#	.	.
.	4A	4A	.	.
.	4G#	4B	.	.
.	4A	2c	.	1a
.	4B	.	.	.
2AA	2c	2A	.	.
=6	=6	=6	=6	=6
2C	2c	1E	0e]	1g
2E	2B	.	.	.
1AA	2A	2c	.	1a
.	[2A	2c	.	.
=7	=7	=7	=7	=7
[0E	2A]	1.B	[0e	1b
.	4G#	.	.	.
.	4F#	.	.	.
.	2G#	.	.	1b
.	2A	2A	.	.
=8	=8	=8	=8	=8
1E_	[0B	[0G#	1e_	[0b
1E_	.	.	1e_	.
=9	=9	=9	=9	=9
0E]	0B]	0G#]	0e]	0b]
*-	*-	*-	*-	*-
!!!CDT: 1525/^1526/-1594/2/2
!!!OCY: Italia
!!!AGN: Mass (Paraphrase)
!!!AST: renaissance, vocal
!!!ASW: Gregorian Mass
!!!PWK: Masses, Book Mantuan I
!!!RNB: Cadence finals: A
!!!YOR: Le Opere Complete, v. 18, p. 1
!!!YOO: Rome, Italy: Fratelli Scalera
!!!END: 1992//
!!!EED: John Miller
!!!YEC: Copyright 2000, John Miller
!!!YEN: United States of America
!!!YEM: Rights to all derivative electronic formats reserved.
!!!YEM: Refer to licensing agreement for further details.
!!!YEM: This file must be accompanied by the licensing agreement.
!!!YEM: A copy of the licensing agreement may be found at http://www.music-cog.ohio-state.edu/HumdrumDatabases/Palestrina/license.txt
!!!EMD: converted to Humdrum by Bret Aarden
